Newaita-dark/.places-retrowave/128/folder-open.svg

<?xml version="1.0" encoding="UTF-8"?>
<svg xmlns="http://www.w3.org/2000/svg" xmlns:xlink="http://www.w3.org/1999/xlink" width="128pt" height="128pt" viewBox="0 0 128 128" version="1.1">
<defs>
<linearGradient id="linear0" gradientUnits="userSpaceOnUse" x1="254" y1="233.5" x2="254" y2="254.666672" gradientTransform="matrix(0.250024,0,0,0.250024,-0.0000152602,53.75514)">
<stop offset="0" style="stop-color:rgb(0%,0%,0%);stop-opacity:0.27451;"/>
<stop offset="1" style="stop-color:rgb(0%,0%,0%);stop-opacity:0;"/>
</linearGradient>
<radialGradient id="radial0" gradientUnits="userSpaceOnUse" cx="450.908936" cy="189.579361" fx="450.908936" fy="189.579361" r="21.166656" gradientTransform="matrix(0.000000696681,-0.31253,-0.562554,-0.000000406154,216.460851,254.38133)">
<stop offset="0" style="stop-color:rgb(0%,0%,0%);stop-opacity:0.313725;"/>
<stop offset="0.222222" style="stop-color:rgb(0%,0%,0%);stop-opacity:0.27451;"/>
<stop offset="1" style="stop-color:rgb(0%,0%,0%);stop-opacity:0;"/>
</radialGradient>
<radialGradient id="radial1" gradientUnits="userSpaceOnUse" cx="450.908936" cy="189.579361" fx="450.908936" fy="189.579361" r="21.166656" gradientTransform="matrix(-0.000000696681,0.31253,0.562554,0.000000406154,-89.448711,-30.109915)">
<stop offset="0" style="stop-color:rgb(0%,0%,0%);stop-opacity:0.313725;"/>
<stop offset="0.222222" style="stop-color:rgb(0%,0%,0%);stop-opacity:0.27451;"/>
<stop offset="1" style="stop-color:rgb(0%,0%,0%);stop-opacity:0;"/>
</radialGradient>
<radialGradient id="radial2" gradientUnits="userSpaceOnUse" cx="450.908936" cy="189.579361" fx="450.908936" fy="189.579361" r="21.166656" gradientTransform="matrix(-0.000000696681,-0.31253,0.562554,-0.000000406154,-89.448711,254.38133)">
<stop offset="0" style="stop-color:rgb(0%,0%,0%);stop-opacity:0.313725;"/>
<stop offset="0.222222" style="stop-color:rgb(0%,0%,0%);stop-opacity:0.27451;"/>
<stop offset="1" style="stop-color:rgb(0%,0%,0%);stop-opacity:0;"/>
</radialGradient>
<radialGradient id="radial3" gradientUnits="userSpaceOnUse" cx="450.908936" cy="189.579361" fx="450.908936" fy="189.579361" r="21.166656" gradientTransform="matrix(0.000000696681,0.31253,-0.562554,0.000000406154,216.460843,-30.109917)">
<stop offset="0" style="stop-color:rgb(0%,0%,0%);stop-opacity:0.313725;"/>
<stop offset="0.222222" style="stop-color:rgb(0%,0%,0%);stop-opacity:0.27451;"/>
<stop offset="1" style="stop-color:rgb(0%,0%,0%);stop-opacity:0;"/>
</radialGradient>
<linearGradient id="linear1" gradientUnits="userSpaceOnUse" x1="338.666656" y1="-147.5" x2="338.666656" y2="21.833334" gradientTransform="matrix(0.250024,0,0,0.250024,0,53.755132)">
<stop offset="0" style="stop-color:rgb(39.215686%,70.980392%,96.470588%);stop-opacity:1;"/>
<stop offset="1" style="stop-color:rgb(73.333333%,87.058824%,98.431373%);stop-opacity:1;"/>
</linearGradient>
<linearGradient id="linear2" gradientUnits="userSpaceOnUse" x1="254" y1="106.5" x2="254" y2="-84" gradientTransform="matrix(1,0,0,1,-0.0000168392,0)">
<stop offset="0" style="stop-color:rgb(87.843137%,87.843137%,87.843137%);stop-opacity:1;"/>
<stop offset="1" style="stop-color:rgb(93.333333%,93.333333%,93.333333%);stop-opacity:1;"/>
</linearGradient>
<linearGradient id="linear3" gradientUnits="userSpaceOnUse" x1="211.666672" y1="233.5" x2="211.666672" y2="0.666671" gradientTransform="matrix(0.250024,0,0,0.250024,0,53.755132)">
<stop offset="0" style="stop-color:rgb(39.215686%,70.980392%,96.470588%);stop-opacity:1;"/>
<stop offset="0.852215" style="stop-color:rgb(98.823529%,89.411765%,92.54902%);stop-opacity:1;"/>
<stop offset="1" style="stop-color:rgb(98.039216%,98.039216%,98.039216%);stop-opacity:1;"/>
</linearGradient>
<linearGradient id="linear4" gradientUnits="userSpaceOnUse" x1="880" y1="1695.118164" x2="880" y2="1335.11731" gradientTransform="matrix(0.0661521,0,0,0.0661521,0.00000133656,0.0000572259)">
<stop offset="0" style="stop-color:rgb(14.901961%,19.607843%,21.960784%);stop-opacity:1;"/>
<stop offset="0.888889" style="stop-color:rgb(27.058824%,35.294118%,39.215686%);stop-opacity:1;"/>
<stop offset="1" style="stop-color:rgb(38.039216%,38.039216%,38.039216%);stop-opacity:1;"/>
</linearGradient>
</defs>
<g id="surface1">
<path style=" stroke:none;fill-rule:nonzero;fill:url(#linear0);" d="M 15.875 112.136719 L 111.136719 112.136719 L 111.136719 117.429688 L 15.875 117.429688 Z M 15.875 112.136719 "/>
<path style=" stroke:none;fill-rule:nonzero;fill:url(#radial0);" d="M 111.136719 112.136719 L 121.71875 112.136719 L 121.71875 106.84375 L 111.136719 106.84375 Z M 111.136719 112.136719 "/>
<path style=" stroke:none;fill-rule:nonzero;fill:url(#radial1);" d="M 15.875 112.136719 L 5.292969 112.136719 L 5.292969 117.429688 L 15.875 117.429688 Z M 15.875 112.136719 "/>
<path style=" stroke:none;fill-rule:nonzero;fill:url(#radial2);" d="M 15.875 112.136719 L 5.292969 112.136719 L 5.292969 106.84375 L 15.875 106.84375 Z M 15.875 112.136719 "/>
<path style=" stroke:none;fill-rule:nonzero;fill:url(#radial3);" d="M 111.136719 112.136719 L 121.71875 112.136719 L 121.71875 117.429688 L 111.136719 117.429688 Z M 111.136719 112.136719 "/>
<path style=" stroke:none;fill-rule:nonzero;fill:url(#linear1);" d="M 29.105469 16.875 C 26.175781 16.875 23.816406 19.238281 23.816406 22.167969 L 23.816406 27.460938 L 10.585938 27.460938 C 7.652344 27.460938 5.292969 29.820312 5.292969 32.753906 L 5.292969 75.089844 C 5.292969 78.023438 7.652344 80.382812 10.585938 80.382812 L 116.429688 80.382812 C 119.359375 80.382812 121.71875 78.023438 121.71875 75.089844 L 121.71875 32.753906 C 121.71875 31.40625 121.21875 30.179688 120.398438 29.246094 L 120.398438 22.167969 C 120.398438 19.238281 118.035156 16.875 115.105469 16.875 Z M 29.105469 16.875 "/>
<path style="fill-rule:nonzero;fill:url(#linear2);stroke-width:3;stroke-linecap:round;stroke-linejoin:miter;stroke:rgb(12.941177%,12.941177%,12.941177%);stroke-opacity:1;stroke-miterlimit:4;" d="M 52.916822 -83.996885 L 455.081542 -83.996885 C 460.924734 -83.996885 465.67428 -79.262962 465.67428 -73.41977 L 465.67428 95.923433 C 465.67428 101.766625 460.924734 106.500548 455.081542 106.500548 L 52.916822 106.500548 C 47.07363 106.500548 42.339707 101.766625 42.339707 95.923433 L 42.339707 -73.41977 C 42.339707 -79.262962 47.07363 -83.996885 52.916822 -83.996885 Z M 52.916822 -83.996885 " transform="matrix(0.250024,0,0,0.250024,0,53.755133)"/>
<path style=" stroke:none;fill-rule:nonzero;fill:rgb(90.196079%,90.196079%,90.196079%);fill-opacity:0.588235;" d="M 29.105469 16.875 C 26.175781 16.875 23.816406 19.238281 23.816406 22.167969 L 23.816406 22.832031 C 23.816406 19.898438 26.175781 17.539062 29.105469 17.539062 L 115.105469 17.539062 C 118.035156 17.539062 120.398438 19.898438 120.398438 22.832031 L 120.398438 22.167969 C 120.398438 19.238281 118.035156 16.875 115.105469 16.875 Z M 29.105469 16.875 "/>
<path style=" stroke:none;fill-rule:nonzero;fill:rgb(12.941177%,12.941177%,12.941177%);fill-opacity:1;" d="M 29.105469 16.5 C 25.972656 16.5 23.441406 19.035156 23.441406 22.167969 L 23.441406 27.085938 L 10.585938 27.085938 C 7.453125 27.085938 4.917969 29.621094 4.917969 32.753906 L 4.917969 75.089844 C 4.917969 78.222656 7.453125 80.757812 10.585938 80.757812 L 116.429688 80.757812 C 119.5625 80.757812 122.09375 78.222656 122.09375 75.089844 L 122.09375 32.753906 C 122.09375 31.367188 121.59375 30.097656 120.773438 29.117188 L 120.773438 22.167969 C 120.773438 19.035156 118.238281 16.5 115.105469 16.5 Z M 29.105469 17.25 L 115.105469 17.25 C 117.835938 17.25 120.023438 19.4375 120.023438 22.167969 L 120.023438 29.390625 L 120.117188 29.496094 C 120.882812 30.363281 121.34375 31.5 121.34375 32.753906 L 121.34375 75.089844 C 121.34375 77.820312 119.160156 80.007812 116.429688 80.007812 L 10.585938 80.007812 C 7.855469 80.007812 5.667969 77.820312 5.667969 75.089844 L 5.667969 32.753906 C 5.667969 30.023438 7.855469 27.835938 10.585938 27.835938 L 24.191406 27.835938 L 24.191406 22.167969 C 24.191406 19.4375 26.375 17.25 29.105469 17.25 Z M 29.105469 17.25 "/>
<path style=" stroke:none;fill-rule:nonzero;fill:url(#linear3);" d="M 10.585938 51.277344 C 7.652344 51.277344 5.292969 53.636719 5.292969 56.566406 L 5.292969 106.84375 C 5.292969 109.773438 7.652344 112.136719 10.585938 112.136719 L 116.429688 112.136719 C 119.359375 112.136719 121.71875 109.773438 121.71875 106.84375 L 121.71875 56.566406 L 50.277344 56.566406 C 47.34375 56.566406 44.984375 54.207031 44.984375 51.277344 Z M 10.585938 51.277344 "/>
<path style=" stroke:none;fill-rule:nonzero;fill:rgb(0%,0%,0%);fill-opacity:0.196078;" d="M 10.585938 112.136719 C 7.652344 112.136719 5.292969 109.777344 5.292969 106.84375 L 5.292969 106.183594 C 5.292969 109.113281 7.652344 111.472656 10.585938 111.472656 L 116.429688 111.472656 C 119.359375 111.472656 121.71875 109.113281 121.71875 106.183594 L 121.71875 106.84375 C 121.71875 109.777344 119.359375 112.136719 116.429688 112.136719 Z M 10.585938 112.136719 "/>
<path style=" stroke:none;fill-rule:nonzero;fill:rgb(90.196079%,90.196079%,90.196079%);fill-opacity:0.937255;" d="M 10.585938 51.277344 C 7.652344 51.277344 5.292969 53.636719 5.292969 56.566406 L 5.292969 57.230469 C 5.292969 54.296875 7.652344 51.9375 10.585938 51.9375 L 44.984375 51.9375 L 44.984375 51.277344 Z M 10.585938 51.277344 "/>
<path style=" stroke:none;fill-rule:nonzero;fill:rgb(90.196079%,90.196079%,90.196079%);fill-opacity:0.937255;" d="M 50.277344 57.230469 C 47.34375 57.230469 44.984375 54.867188 44.984375 51.9375 L 44.984375 51.277344 C 44.984375 54.207031 47.34375 56.574219 50.277344 56.566406 L 122.050781 56.566406 L 122.050781 57.230469 Z M 50.277344 57.230469 "/>
<path style=" stroke:none;fill-rule:nonzero;fill:rgb(12.941177%,12.941177%,12.941177%);fill-opacity:1;" d="M 10.585938 50.902344 C 7.453125 50.902344 4.917969 53.433594 4.917969 56.566406 L 4.917969 106.84375 C 4.917969 109.976562 7.453125 112.511719 10.585938 112.511719 L 116.429688 112.511719 C 119.5625 112.511719 122.09375 109.976562 122.09375 106.84375 L 122.09375 56.191406 L 50.277344 56.191406 C 47.546875 56.191406 45.359375 54.007812 45.359375 51.277344 L 45.359375 50.902344 Z M 10.585938 51.652344 L 44.628906 51.652344 C 44.820312 54.609375 47.269531 56.941406 50.277344 56.941406 L 121.34375 56.941406 L 121.34375 106.84375 C 121.34375 109.574219 119.160156 111.761719 116.429688 111.761719 L 10.585938 111.761719 C 7.855469 111.761719 5.667969 109.574219 5.667969 106.84375 L 5.667969 56.566406 C 5.667969 53.835938 7.855469 51.652344 10.585938 51.652344 Z M 10.585938 51.652344 "/>
<path style=" stroke:none;fill-rule:nonzero;fill:url(#linear4);" d="M 5.292969 85.675781 L 5.292969 106.84375 C 5.292969 109.777344 7.652344 112.136719 10.585938 112.136719 L 116.429688 112.136719 C 119.359375 112.136719 121.71875 109.777344 121.71875 106.84375 L 121.71875 85.675781 C 117.246094 86.117188 116.429688 88.320312 107.167969 85.675781 C 104.851562 84.683594 98.898438 85.011719 92.613281 85.675781 C 87.320312 85.675781 82.027344 83.027344 78.058594 85.675781 C 76.738281 86.335938 74.21875 86.558594 70.972656 86.542969 C 62.183594 88.320312 54.246094 88.320312 46.375 85.300781 C 42.335938 84.351562 37.894531 85.234375 34.398438 85.675781 C 25.136719 86.996094 23.816406 88.320312 19.84375 85.675781 C 15.875 84.351562 11.90625 86.996094 5.292969 85.675781 Z M 5.292969 85.675781 "/>
</g>
</svg>

<svg xmlns="http://www.w3.org/2000/svg" width="128pt" height="128pt" viewBox="0 0 128 128"><defs><linearGradient id="a" gradientUnits="userSpaceOnUse" x1="254" y1="233.5" x2="254" y2="254.667" gradientTransform="matrix(.25002 0 0 .25002 0 53.755)"><stop offset="0" stop-opacity=".275"/><stop offset="1" stop-opacity="0"/></linearGradient><radialGradient id="b" gradientUnits="userSpaceOnUse" cx="450.909" cy="189.579" fx="450.909" fy="189.579" r="21.167" gradientTransform="matrix(0 -.31253 -.56255 0 216.46 254.381)"><stop offset="0" stop-opacity=".314"/><stop offset=".222" stop-opacity=".275"/><stop offset="1" stop-opacity="0"/></radialGradient><radialGradient id="c" gradientUnits="userSpaceOnUse" cx="450.909" cy="189.579" fx="450.909" fy="189.579" r="21.167" gradientTransform="matrix(0 .31253 .56255 0 -89.449 -30.11)"><stop offset="0" stop-opacity=".314"/><stop offset=".222" stop-opacity=".275"/><stop offset="1" stop-opacity="0"/></radialGradient><radialGradient id="d" gradientUnits="userSpaceOnUse" cx="450.909" cy="189.579" fx="450.909" fy="189.579" r="21.167" gradientTransform="matrix(0 -.31253 .56255 0 -89.449 254.381)"><stop offset="0" stop-opacity=".314"/><stop offset=".222" stop-opacity=".275"/><stop offset="1" stop-opacity="0"/></radialGradient><radialGradient id="e" gradientUnits="userSpaceOnUse" cx="450.909" cy="189.579" fx="450.909" fy="189.579" r="21.167" gradientTransform="matrix(0 .31253 -.56255 0 216.46 -30.11)"><stop offset="0" stop-opacity=".314"/><stop offset=".222" stop-opacity=".275"/><stop offset="1" stop-opacity="0"/></radialGradient><linearGradient id="f" gradientUnits="userSpaceOnUse" x1="338.667" y1="-147.5" x2="338.667" y2="21.833" gradientTransform="matrix(.25002 0 0 .25002 0 53.755)"><stop offset="0" stop-color="#64b5f6"/><stop offset="1" stop-color="#bbdefb"/></linearGradient><linearGradient id="g" gradientUnits="userSpaceOnUse" x1="254" y1="106.5" x2="254" y2="-84"><stop offset="0" stop-color="#e0e0e0"/><stop offset="1" stop-color="#eee"/></linearGradient><linearGradient id="h" gradientUnits="userSpaceOnUse" x1="211.667" y1="233.5" x2="211.667" y2=".667" gradientTransform="matrix(.25002 0 0 .25002 0 53.755)"><stop offset="0" stop-color="#64b5f6"/><stop offset=".852" stop-color="#fce4ec"/><stop offset="1" stop-color="#fafafa"/></linearGradient><linearGradient id="i" gradientUnits="userSpaceOnUse" x1="880" y1="1695.118" x2="880" y2="1335.117" gradientTransform="scale(.06615)"><stop offset="0" stop-color="#263238"/><stop offset=".889" stop-color="#455a64"/><stop offset="1" stop-color="#616161"/></linearGradient></defs><path d="M15.875 112.137h95.262v5.293H15.875zm0 0" fill="url(#a)"/><path d="M111.137 112.137h10.582v-5.293h-10.582zm0 0" fill="url(#b)"/><path d="M15.875 112.137H5.293v5.293h10.582zm0 0" fill="url(#c)"/><path d="M15.875 112.137H5.293v-5.293h10.582zm0 0" fill="url(#d)"/><path d="M111.137 112.137h10.582v5.293h-10.582zm0 0" fill="url(#e)"/><path d="M29.105 16.875a5.281 5.281 0 0 0-5.289 5.293v5.293h-13.23a5.28 5.28 0 0 0-5.293 5.293V75.09a5.28 5.28 0 0 0 5.293 5.293H116.43c2.93 0 5.289-2.36 5.289-5.293V32.754c0-1.348-.5-2.574-1.32-3.508v-7.078a5.285 5.285 0 0 0-5.294-5.293zm0 0" fill="url(#f)"/><path d="M52.917-83.997h402.165c5.843 0 10.592 4.734 10.592 10.577V95.923c0 5.844-4.75 10.578-10.592 10.578H52.917c-5.843 0-10.577-4.734-10.577-10.578V-73.42c0-5.843 4.734-10.577 10.577-10.577zm0 0" transform="matrix(.25002 0 0 .25002 0 53.755)" fill="url(#g)" stroke-width="3" stroke-linecap="round" stroke="#212121"/><path d="M29.105 16.875a5.281 5.281 0 0 0-5.289 5.293v.664a5.279 5.279 0 0 1 5.29-5.293h86c2.93 0 5.292 2.36 5.292 5.293v-.664a5.285 5.285 0 0 0-5.293-5.293zm0 0" fill="#e6e6e6" fill-opacity=".588"/><path d="M29.105 16.5a5.661 5.661 0 0 0-5.664 5.668v4.918H10.586a5.665 5.665 0 0 0-5.668 5.668V75.09a5.665 5.665 0 0 0 5.668 5.668H116.43a5.661 5.661 0 0 0 5.664-5.668V32.754c0-1.387-.5-2.656-1.32-3.637v-6.949a5.665 5.665 0 0 0-5.669-5.668zm0 .75h86a4.9 4.9 0 0 1 4.918 4.918v7.223l.094.105a4.895 4.895 0 0 1 1.227 3.258V75.09a4.896 4.896 0 0 1-4.914 4.918H10.586a4.9 4.9 0 0 1-4.918-4.918V32.754a4.9 4.9 0 0 1 4.918-4.918H24.19v-5.668a4.896 4.896 0 0 1 4.914-4.918zm0 0" fill="#212121"/><path d="M10.586 51.277a5.279 5.279 0 0 0-5.293 5.29v50.277c0 2.93 2.36 5.293 5.293 5.293H116.43c2.93 0 5.289-2.364 5.289-5.293V56.566H50.277a5.279 5.279 0 0 1-5.293-5.289zm0 0" fill="url(#h)"/><path d="M10.586 112.137a5.28 5.28 0 0 1-5.293-5.293v-.66c0 2.93 2.36 5.289 5.293 5.289H116.43c2.93 0 5.289-2.36 5.289-5.29v.66a5.279 5.279 0 0 1-5.29 5.294zm0 0" fill-opacity=".196"/><path d="M10.586 51.277a5.279 5.279 0 0 0-5.293 5.29v.663a5.28 5.28 0 0 1 5.293-5.292h34.398v-.66zm0 0" fill="#e6e6e6" fill-opacity=".937"/><path d="M50.277 57.23a5.282 5.282 0 0 1-5.293-5.292v-.66c0 2.929 2.36 5.296 5.293 5.288h71.774v.664zm0 0" fill="#e6e6e6" fill-opacity=".937"/><path d="M10.586 50.902a5.661 5.661 0 0 0-5.668 5.664v50.278a5.665 5.665 0 0 0 5.668 5.668H116.43a5.661 5.661 0 0 0 5.664-5.668V56.19H50.277a4.896 4.896 0 0 1-4.918-4.914v-.375zm0 .75h34.043a5.653 5.653 0 0 0 5.648 5.29h71.067v49.902a4.896 4.896 0 0 1-4.914 4.918H10.586a4.9 4.9 0 0 1-4.918-4.918V56.566a4.896 4.896 0 0 1 4.918-4.914zm0 0" fill="#212121"/><path d="M5.293 85.676v21.168a5.28 5.28 0 0 0 5.293 5.293H116.43c2.93 0 5.289-2.36 5.289-5.293V85.676c-4.473.441-5.29 2.644-14.551 0-2.316-.992-8.27-.664-14.555 0-5.293 0-10.586-2.649-14.554 0-1.32.66-3.84.883-7.086.867-8.79 1.777-16.727 1.777-24.598-1.242-4.04-.95-8.48-.067-11.977.375-9.261 1.32-10.582 2.644-14.554 0-3.969-1.324-7.938 1.32-14.551 0zm0 0" fill="url(#i)"/></svg>
